X: 688
T: Evlerinin Önü Mersin
C: (Anonim)
O: Turkey
F: http://compmusic.upf.edu/node/140
N: nihavent--turku--agiraksak--evlerinin_onu--muzaffer_sarisozen
N: makam= nihavent
N: form= turku
N: usul= agiraksak = 9/4
M: 9/4
L: 1/16
K: C _B _e  
Q: 1/4=96
%%MIDI tuningsystem comma53
d3c B2A2 B2c2 d2e2 {f}d3c B2A2 G4 d2c2 {e}d4  | \
w:  ARANAĞME  | 
d3c B2A2 B2c2 d2e2 {f}d3c B2A2 G4 G4 G2G2  | 
w:   | 
d3c B2A2 B2c2 d2e2 {f}d3c B2A2 G4 d2c2 {e}d4  | \
w:  ARANAĞME  | 
d3c B2A2 B2c2 d2e2 {f}d3c B2A2 G4 G4 G2G2  | 
w:   | 
_dcB2 d4 B2dc dcB2 c2dc B2A2 G4 =d2c2 d4  | \
w:   | 
_dcB2 d4 B2dc dcB2 c2dc B2A2 G4 G4 g2^f2  | 
w:   | 
g4 g2g2 {^f}g6g2 g2g6 g12  | g4 {^f}e2g2 f6e2 {a}g3f (3e2d2e2 d2e2 d2e2 c4  | 
w:  *  *  *  *  Ev le ri nin   |   | 
d2.d2 .d4 .d4 d2e^f e2d2 e2c2 d4 d4 d2z2  | z28  | \
w:  ö nü  mer sin   SAZ  |  | 
d4d2d2d4d2c2c2d2{f}e4d2c2  | 
w:  Ah  su lar_ iç mem  *  ga dı *  nım   | 
z36  | d2BA B2A2 B4 c/B/cA2 A2G2 G4 d8 z4  | z28  | \
w:  |  ter *  *  *  *  *  sin  *  *  *  ter *  *  sin    |  | 
d4d2d2d4d2c2c2d2{f}e4d2c2  | 
w:  Ah  su lar_ iç mem  *  ga dı *  nım   | 
z36  | d2BA B2A2 B4 c2A2 A2G2 G2^F2 G8 g2^f2  | \
w:  |  ter *  *  *  *  *  sin  *  ter *  *  *  sin   SAZ  | 
g4 g2g2 g4 g4 g2g2 g2g2 g12  | 
w:  *  *  *  Mev lam  se ni   | 
{a}g4 e2g2 ^f6e2 {a}g3f (3e2d2e2 d2e2 d2e2 c4  | \
w:   | 
d2.d2 .d4 d4 d2ef e2d2 e2c2 d4 d4 d2z2  | 
w:  ba na  ver sin    | 
z28  | d4d4d4d2c2c2d2{f}e4d2c2  | z36  | \
w:  |  Al  han çe ri  *  ga dı *  nım   |  | 
d2BA B2A2 B4 c/B/cA2 A2G2 G2d2 d12  | 
w:  vur  *  *  *  *  ben  ö *  *  *  le *  *  *  yim    | 
z28  | d4d2d2d4d2c2c2d2{f}e4d2c2  | z36  | \
w:  |  Ah  ka pı nız da  *  bi  da *  nem   |  | 
d2BA B2A2 B4 c/B/cA2 A2G2 G2^F2 G12  | 
w:  kul  *  *  *  *  ben  o *  *  *  la *  *  *  yım    | 
d3c B2A2 B2c2 d2e2 {f}d3c B2A2 G4 d2c2 {e}d4  | \
w:  ARANAĞME  | 
d3c B2A2 B2c2 d2e2 {f}d3c B2A2 G4 G4 G2G2  | 
w:   | 
d3c B2A2 B2c2 d2e2 {f}d3c B2A2 G4 d2c2 {e}d4  | \
w:  ARANAĞME  | 
d3c B2A2 B2c2 d2e2 {f}d3c B2A2 G4 G4 G2G2  | 
w:   | 
_dcB2 d4 B2dc dcB2 c2dc B2A2 G4 =d2c2 d4  | \
w:   | 
_dcB2 d4 B2dc dcB2 c2dc B2A2 G4 G4 g2^f2  | 
w:   | 
g4 g2g2 {^f}g6g2 g2g6 g12  | g4 {^f}e2g2 f6e2 {a}g3f (3e2d2e2 d2e2 d2e2 c4  | 
w:  *  *  *  *  Ev le ri nin   |   | 
d2.d2 .d4 .d4 d2e^f e2d2 e2c2 d4 d4 d2z2  | z28  | \
w:  ö nü  mer sin   SAZ  |  | 
d4d2d2d4d2c2c2d2{f}e4d2c2  | 
w:  Ah  su lar_ iç mem  *  ga dı *  nım   | 
z36  | d2BA B2A2 B4 c/B/cA2 A2G2 G4 d8 z4  | z28  | \
w:  |  ter *  *  *  *  *  sin  *  *  *  ter *  *  sin    |  | 
d4d2d2d4d2c2c2d2{f}e4d2c2  | 
w:  Ah  su lar_ iç mem  *  ga dı *  nım   | 
z36  | d2BA B2A2 B4 c2A2 A2G2 G2^F2 G8 g2^f2  | \
w:  |  ter *  *  *  *  *  sin  *  ter *  *  *  sin   SAZ  | 
g4 g2g2 g4 g4 g2g2 g2g2 g12  | 
w:  *  *  *  Mev lam  se ni   | 
{a}g4 e2g2 ^f6e2 {a}g3f (3e2d2e2 d2e2 d2e2 c4  | \
w:   | 
d2.d2 .d4 d4 d2ef e2d2 e2c2 d4 d4 d2z2  | 
w:  ba na  ver sin    | 
z28  | d4d4d4d2c2c2d2{f}e4d2c2  | z36  | \
w:  |  Al  han çe ri  *  ga dı *  nım   |  | 
d2BA B2A2 B4 c/B/cA2 A2G2 G2d2 d12  | 
w:  vur  *  *  *  *  ben  ö *  *  *  le *  *  *  yim    | 
z28  | d4d2d2d4d2c2c2d2{f}e4d2c2  | z36  | \
w:  |  Ah  ka pı nız da  *  bi  da *  nem   |  | 
d2BA B2A2 B4 c/B/cA2 A2G2 G2^F2 G12  | 
w:  kul  *  *  *  *  ben  o *  *  *  la *  *  *  yım    | 
|


